icon-themes/breeze_svg/chart2/res/conestack_52x60.svg

<svg height="52" viewBox="0 0 60 52" width="60" xmlns="http://www.w3.org/2000/svg" xmlns:xlink="http://www.w3.org/1999/xlink"><linearGradient id="a"><stop offset="0" stop-color="#f62459"/><stop offset="1" stop-color="#f8567f"/></linearGradient><linearGradient id="b"><stop offset="0" stop-color="#22a7f0"/><stop offset="1" stop-color="#62c1f4"/></linearGradient><linearGradient id="c" gradientUnits="userSpaceOnUse" x1="11" x2="30" xlink:href="#a" y1="34" y2="34"/><linearGradient id="d" gradientUnits="userSpaceOnUse" x1="33" x2="52" xlink:href="#b" y1="1034.3622" y2="1034.3622"/><linearGradient id="e" gradientUnits="userSpaceOnUse" x1="33" x2="52" xlink:href="#a" y1="1034.3622" y2="1034.3622"/><linearGradient id="f" gradientUnits="userSpaceOnUse" x1="11" x2="30" xlink:href="#b" y1="34" y2="34"/><g transform="translate(0 -1000.3622)"><path d="m0 1000.3622h60v52h-60z" fill="#fff"/><path d="m11 1040.3684h46v .9874h-46z" fill="#4d4d4d"/><path d="m12 1040.3622-9 9" fill="none" stroke="#4d4d4d"/><path d="m11 1003.3622h1v38h-1z" fill="#4d4d4d"/><path d="m21 19-10 24c-.849669 2.039206 4.253295 4 9.5 4s9.5-1.790861 9.5-4z" fill="url(#c)" transform="translate(0 1000.3622)"/><path d="m43 1003.3622-10 40c-.535795 2.1432 4.253295 4 9.5 4s9.5-1.7909 9.5-4z" fill="url(#e)"/><path d="m43 1003.3622-6.75 27h-.002a6.4119763 3 0 0 0 6.412109 3 6.4119763 3 0 0 0 6.41211-3h .002z" fill="url(#d)"/><path d="m21 19-7.916016 19h .013672a7.521306 3 0 0 0 -.017578.140625 7.521306 3 0 0 0 7.521484 3 7.521306 3 0 0 0 7.521485-3 7.521306 3 0 0 0 -.013672-.140625h.015625z" fill="url(#f)" transform="translate(0 1000.3622)"/></g></svg>

<?xml version="1.0" encoding="UTF-8" standalone="no"?>
<!-- Created with Inkscape (http://www.inkscape.org/) -->

<svg
   xmlns:dc="http://purl.org/dc/elements/1.1/"
   xmlns:cc="http://creativecommons.org/ns#"
   xmlns:rdf="http://www.w3.org/1999/02/22-rdf-syntax-ns#"
   xmlns:svg="http://www.w3.org/2000/svg"
   xmlns="http://www.w3.org/2000/svg"
   xmlns:xlink="http://www.w3.org/1999/xlink"
   xmlns:sodipodi="http://sodipodi.sourceforge.net/DTD/sodipodi-0.dtd"
   xmlns:inkscape="http://www.inkscape.org/namespaces/inkscape"
   width="60"
   height="52"
   viewBox="0 0 60 52"
   id="svg5736"
   version="1.1"
   inkscape:version="0.91 r13725"
   sodipodi:docname="conestack_52x60.svg">
  <defs
     id="defs5738">
    <linearGradient
       id="linearGradient4324">
      <stop
         style="stop-color:#f62459;stop-opacity:1"
         offset="0"
         id="stop4326" />
      <stop
         style="stop-color:#f8567f;stop-opacity:1"
         offset="1"
         id="stop4328" />
    </linearGradient>
    <linearGradient
       id="linearGradient4197"
       inkscape:collect="always">
      <stop
         id="stop4199"
         offset="0"
         style="stop-color:#22a7f0;stop-opacity:1" />
      <stop
         id="stop4201"
         offset="1"
         style="stop-color:#62c1f4;stop-opacity:1" />
    </linearGradient>
    <linearGradient
       inkscape:collect="always"
       xlink:href="#linearGradient4324"
       id="linearGradient4189"
       x1="11"
       y1="34"
       x2="30"
       y2="34"
       gradientUnits="userSpaceOnUse" />
    <linearGradient
       gradientTransform="translate(22,1000.3622)"
       inkscape:collect="always"
       xlink:href="#linearGradient4197"
       id="linearGradient4189-3-8"
       x1="11"
       y1="34"
       x2="30"
       y2="34"
       gradientUnits="userSpaceOnUse" />
    <linearGradient
       gradientTransform="translate(22,1000.3622)"
       inkscape:collect="always"
       xlink:href="#linearGradient4324"
       id="linearGradient4189-8"
       x1="11"
       y1="34"
       x2="30"
       y2="34"
       gradientUnits="userSpaceOnUse" />
    <linearGradient
       id="linearGradient4300-6">
      <stop
         style="stop-color:#f62459;stop-opacity:1"
         offset="0"
         id="stop4302-3" />
      <stop
         style="stop-color:#f73768;stop-opacity:1"
         offset="1"
         id="stop4304-88" />
    </linearGradient>
    <linearGradient
       inkscape:collect="always"
       xlink:href="#linearGradient4197"
       id="linearGradient4189-0"
       x1="11"
       y1="34"
       x2="30"
       y2="34"
       gradientUnits="userSpaceOnUse" />
  </defs>
  <sodipodi:namedview
     id="base"
     pagecolor="#ffffff"
     bordercolor="#666666"
     borderopacity="1.0"
     inkscape:pageopacity="0.0"
     inkscape:pageshadow="2"
     inkscape:zoom="15.839192"
     inkscape:cx="28.253905"
     inkscape:cy="25.726526"
     inkscape:document-units="px"
     inkscape:current-layer="layer1"
     showgrid="true"
     units="px"
     showguides="true"
     inkscape:guide-bbox="true"
     inkscape:window-width="1920"
     inkscape:window-height="1021"
     inkscape:window-x="-4"
     inkscape:window-y="0"
     inkscape:window-maximized="1"
     inkscape:snap-bbox="true"
     inkscape:object-nodes="true">
    <inkscape:grid
       type="xygrid"
       id="grid6381" />
    <sodipodi:guide
       position="21,49"
       orientation="0,1"
       id="guide6383" />
    <sodipodi:guide
       position="3,42"
       orientation="1,0"
       id="guide6385" />
    <sodipodi:guide
       position="57,37"
       orientation="1,0"
       id="guide6387" />
    <sodipodi:guide
       position="45,3"
       orientation="0,1"
       id="guide6389" />
  </sodipodi:namedview>
  <metadata
     id="metadata5741">
    <rdf:RDF>
      <cc:Work
         rdf:about="">
        <dc:format>image/svg+xml</dc:format>
        <dc:type
           rdf:resource="http://purl.org/dc/dcmitype/StillImage" />
        <dc:title></dc:title>
      </cc:Work>
    </rdf:RDF>
  </metadata>
  <g
     inkscape:label="Layer 1"
     inkscape:groupmode="layer"
     id="layer1"
     transform="translate(0,-1000.3622)">
    <rect
       style="color:#000000;clip-rule:nonzero;display:inline;overflow:visible;visibility:visible;opacity:1;isolation:auto;mix-blend-mode:normal;color-interpolation:sRGB;color-interpolation-filters:linearRGB;solid-color:#000000;solid-opacity:1;fill:#ffffff;fill-opacity:1;fill-rule:nonzero;stroke:none;stroke-width:10;stroke-linecap:butt;stroke-linejoin:miter;stroke-miterlimit:4;stroke-dasharray:none;stroke-dashoffset:0;stroke-opacity:1;color-rendering:auto;image-rendering:auto;shape-rendering:auto;text-rendering:auto;enable-background:accumulate"
       id="rect4205-6-4-6"
       width="60"
       height="52"
       x="0"
       y="1000.3622" />
    <path
       style="color:#000000;clip-rule:nonzero;display:inline;overflow:visible;visibility:visible;opacity:1;isolation:auto;mix-blend-mode:normal;color-interpolation:sRGB;color-interpolation-filters:linearRGB;solid-color:#000000;solid-opacity:1;fill:#4d4d4d;fill-opacity:1;fill-rule:nonzero;stroke:none;stroke-width:10;stroke-linecap:butt;stroke-linejoin:miter;stroke-miterlimit:4;stroke-dasharray:none;stroke-dashoffset:0;stroke-opacity:1;color-rendering:auto;image-rendering:auto;shape-rendering:auto;text-rendering:auto;enable-background:accumulate"
       d="m 11,1040.3684 46,0 0,0.9874 -46,0 z"
       id="rect4214-3-2-2"
       inkscape:connector-curvature="0" />
    <path
       style="fill:none;fill-rule:evenodd;stroke:#4d4d4d;stroke-width:1px;stroke-linecap:butt;stroke-linejoin:miter;stroke-opacity:1"
       d="m 12,1040.3622 -9,9"
       id="path4994-0"
       inkscape:connector-curvature="0" />
    <path
       style="color:#000000;clip-rule:nonzero;display:inline;overflow:visible;visibility:visible;opacity:1;isolation:auto;mix-blend-mode:normal;color-interpolation:sRGB;color-interpolation-filters:linearRGB;solid-color:#000000;solid-opacity:1;fill:#4d4d4d;fill-opacity:1;fill-rule:nonzero;stroke:none;stroke-width:10;stroke-linecap:butt;stroke-linejoin:miter;stroke-miterlimit:4;stroke-dasharray:none;stroke-dashoffset:0;stroke-opacity:1;color-rendering:auto;image-rendering:auto;shape-rendering:auto;text-rendering:auto;enable-background:accumulate"
       d="m 11,1003.3622 1,0 0,38 -1,0 z"
       id="rect4216-2-9-7"
       inkscape:connector-curvature="0" />
    <path
       style="opacity:1;fill:url(#linearGradient4189);fill-opacity:1;stroke:none;stroke-width:8;stroke-linecap:square;stroke-miterlimit:4;stroke-dasharray:none;stroke-opacity:1"
       d="M 21,19 11,43 c -0.849669,2.039206 4.253295,4 9.5,4 5.246705,0 9.5,-1.790861 9.5,-4 z"
       transform="translate(0,1000.3622)"
       id="path4491-8-3"
       inkscape:connector-curvature="0"
       sodipodi:nodetypes="csssc" />
    <path
       style="opacity:1;fill:url(#linearGradient4189-8);fill-opacity:1;stroke:none;stroke-width:8;stroke-linecap:square;stroke-miterlimit:4;stroke-dasharray:none;stroke-opacity:1"
       d="m 43,1003.3622 -10,40 c -0.535795,2.1432 4.253295,4 9.5,4 5.246705,0 9.5,-1.7909 9.5,-4 l -9,-40 z"
       id="path4491-8-3-6"
       inkscape:connector-curvature="0"
       sodipodi:nodetypes="cssscc" />
    <path
       inkscape:connector-curvature="0"
       style="opacity:1;fill:url(#linearGradient4189-3-8);fill-opacity:1;stroke:none;stroke-width:8;stroke-linecap:square;stroke-miterlimit:4;stroke-dasharray:none;stroke-opacity:1"
       d="m 43,1003.3622 -6.75,27 -0.002,0 a 6.4119763,3 0 0 0 6.412109,3 6.4119763,3 0 0 0 6.41211,-3 l 0.002,0 -6.074219,-27 z"
       id="path4491-8-3-3-9" />
    <path
       style="opacity:1;fill:url(#linearGradient4189-0);fill-opacity:1;stroke:none;stroke-width:8;stroke-linecap:square;stroke-miterlimit:4;stroke-dasharray:none;stroke-opacity:1"
       d="M 21 19 L 13.083984 38 L 13.097656 38 A 7.521306 3 0 0 0 13.080078 38.140625 A 7.521306 3 0 0 0 20.601562 41.140625 A 7.521306 3 0 0 0 28.123047 38.140625 A 7.521306 3 0 0 0 28.109375 38 L 28.125 38 L 21 19 z "
       transform="translate(0,1000.3622)"
       id="path4491-8-3-2" />
  </g>
</svg>
